Numix/64/mimetypes/application-image-ico.svg

<?xml version="1.0" encoding="UTF-8" standalone="no"?>
<svg
   xmlns:dc="http://purl.org/dc/elements/1.1/"
   xmlns:cc="http://creativecommons.org/ns#"
   xmlns:rdf="http://www.w3.org/1999/02/22-rdf-syntax-ns#"
   xmlns:svg="http://www.w3.org/2000/svg"
   xmlns="http://www.w3.org/2000/svg"
   xmlns:sodipodi="http://sodipodi.sourceforge.net/DTD/sodipodi-0.dtd"
   xmlns:inkscape="http://www.inkscape.org/namespaces/inkscape"
   width="64px"
   height="64px"
   viewBox="0 0 64 64"
   version="1.1"
   id="svg2"
   inkscape:version="0.91 r13725"
   sodipodi:docname="application-image-ico.svg">
  <metadata
     id="metadata25">
    <rdf:RDF>
      <cc:Work
         rdf:about="">
        <dc:format>image/svg+xml</dc:format>
        <dc:type
           rdf:resource="http://purl.org/dc/dcmitype/StillImage" />
      </cc:Work>
    </rdf:RDF>
  </metadata>
  <defs
     id="defs23" />
  <sodipodi:namedview
     pagecolor="#ffffff"
     bordercolor="#666666"
     borderopacity="1"
     objecttolerance="10"
     gridtolerance="10"
     guidetolerance="10"
     inkscape:pageopacity="0"
     inkscape:pageshadow="2"
     inkscape:window-width="1366"
     inkscape:window-height="704"
     id="namedview21"
     showgrid="false"
     inkscape:zoom="43.919341"
     inkscape:cx="33.768237"
     inkscape:cy="32"
     inkscape:window-x="0"
     inkscape:window-y="27"
     inkscape:window-maximized="1"
     inkscape:current-layer="svg2" />
  <g
     id="surface1">
    <path
       style=" stroke:none;fill-rule:nonzero;fill:rgb(21.960784%,63.921569%,30.588235%);fill-opacity:1;"
       d="M 10.671875 0 C 9.296875 0 8 1.355469 8 2.789062 L 8 61.210938 C 8 62.566406 9.375 64 10.671875 64 L 53.328125 64 C 54.625 64 56 62.566406 56 61.210938 L 56 18 L 38 0 Z M 10.671875 0 "
       id="path5" />
    <path
       style=" stroke:none;fill-rule:nonzero;fill:rgb(0%,0%,0%);fill-opacity:0.196078;"
       d="M 42 18 L 56 32 L 56 18 Z M 42 18 "
       id="path7" />
    <path
       style=" stroke:none;fill-rule:nonzero;fill:rgb(100%,100%,100%);fill-opacity:0.392157;"
       d="M 38 0 L 55.984375 18 L 40.757812 18 C 39.410156 18 38 16.574219 38 15.226562 Z M 38 0 "
       id="path9" />
    <path
       style="fill:#ffffff;fill-opacity:1;fill-rule:nonzero;stroke:none"
       d="M 23.289062,22 C 22.585938,22.066406 21.984375,22.8125 22,23.605469 l 0,16.828125 c 0.0078,0.828125 0.667969,1.574218 1.40625,1.566406 l 17.222656,0 C 41.355469,41.984375 41.992188,41.253906 42,40.433594 L 42,23.605469 C 42.015625,22.769531 41.371094,22.007812 40.628906,22 Z M 24,24 40,24 40,35.402344 35.296875,30.085938 32.316406,32.859375 28.386719,27.9375 24,33.597656 Z"
       id="path11"
       inkscape:connector-curvature="0"
       sodipodi:nodetypes="ccccccccccccccccc" />
    <path
       style=" stroke:none;fill-rule:nonzero;fill:rgb(0%,0%,0%);fill-opacity:0.196078;"
       d="M 8 48 L 8 61.335938 C 8 62.632812 9.375 64 10.664062 64 L 53.335938 64 C 54.625 64 56 62.632812 56 61.335938 L 56 48 Z M 8 48 "
       id="path13" />
    <path
       style=" stroke:none;fill-rule:nonzero;fill:rgb(100%,100%,100%);fill-opacity:1;"
       d="M 18 61.984375 L 18 60.183594 L 20.710938 60.183594 L 20.710938 52.867188 L 18 52.867188 L 18 51.066406 L 25.890625 51.066406 L 25.890625 52.867188 L 23.195312 52.867188 L 23.195312 60.183594 L 25.890625 60.183594 L 25.890625 61.984375 L 18 61.984375 "
       id="path15" />
    <path
       style=" stroke:none;fill-rule:nonzero;fill:rgb(100%,100%,100%);fill-opacity:1;"
       d="M 32.890625 62.210938 C 31.140625 62.210938 29.804688 61.71875 28.878906 60.726562 C 27.953125 59.742188 27.492188 58.339844 27.492188 56.511719 C 27.492188 55.613281 27.636719 54.804688 27.917969 54.101562 C 28.195312 53.394531 28.585938 52.800781 29.078125 52.316406 C 29.585938 51.824219 30.179688 51.457031 30.863281 51.207031 C 31.5625 50.949219 32.316406 50.824219 33.132812 50.824219 C 33.574219 50.824219 33.964844 50.859375 34.316406 50.925781 C 34.675781 50.984375 34.992188 51.058594 35.257812 51.140625 C 35.527344 51.222656 35.75 51.308594 35.917969 51.398438 C 36.109375 51.5 36.253906 51.566406 36.34375 51.617188 L 35.703125 53.34375 C 35.394531 53.167969 35.019531 53.019531 34.574219 52.902344 C 34.148438 52.777344 33.65625 52.710938 33.089844 52.710938 C 32.707031 52.710938 32.324219 52.777344 31.949219 52.902344 C 31.589844 53.019531 31.265625 53.226562 30.964844 53.519531 C 30.6875 53.800781 30.453125 54.1875 30.261719 54.660156 C 30.085938 55.144531 30.003906 55.746094 30.003906 56.464844 C 30.003906 57.707031 30.246094 58.664062 30.722656 59.339844 C 31.222656 59.992188 32.023438 60.324219 33.132812 60.324219 C 33.773438 60.324219 34.300781 60.257812 34.71875 60.132812 C 35.144531 60 35.484375 59.875 35.742188 59.742188 L 36.359375 61.453125 C 36.019531 61.644531 35.542969 61.820312 34.941406 61.984375 C 34.351562 62.136719 33.667969 62.210938 32.890625 62.210938 "
       id="path17" />
    <path
       style=" stroke:none;fill-rule:nonzero;fill:rgb(100%,100%,100%);fill-opacity:1;"
       d="M 40.039062 56.511719 C 40.039062 57.046875 40.054688 57.546875 40.097656 58.015625 C 40.148438 58.472656 40.238281 58.875 40.375 59.214844 C 40.523438 59.558594 40.722656 59.824219 40.980469 60.023438 C 41.234375 60.226562 41.574219 60.324219 42 60.324219 C 42.417969 60.324219 42.75 60.226562 43.007812 60.023438 C 43.277344 59.824219 43.476562 59.558594 43.609375 59.214844 C 43.75 58.859375 43.851562 58.457031 43.886719 58 C 43.945312 57.539062 43.96875 57.046875 43.96875 56.511719 C 43.96875 55.988281 43.945312 55.496094 43.886719 55.035156 C 43.851562 54.5625 43.75 54.160156 43.609375 53.820312 C 43.476562 53.476562 43.277344 53.210938 43.027344 53.007812 C 42.765625 52.808594 42.433594 52.710938 42 52.710938 C 41.574219 52.710938 41.234375 52.808594 40.980469 53.007812 C 40.722656 53.210938 40.523438 53.484375 40.375 53.835938 C 40.238281 54.175781 40.148438 54.578125 40.097656 55.035156 C 40.054688 55.496094 40.039062 55.988281 40.039062 56.511719 M 37.527344 56.511719 C 37.527344 54.636719 37.921875 53.21875 38.714844 52.265625 C 39.496094 51.300781 40.597656 50.824219 42 50.824219 C 43.460938 50.824219 44.570312 51.300781 45.335938 52.265625 C 46.097656 53.21875 46.480469 54.636719 46.480469 56.511719 C 46.480469 58.398438 46.085938 59.816406 45.3125 60.785156 C 44.535156 61.734375 43.441406 62.210938 42.023438 62.210938 C 40.566406 62.210938 39.449219 61.734375 38.671875 60.785156 C 37.914062 59.816406 37.527344 58.398438 37.527344 56.511719 "
       id="path19" />
  </g>
</svg>

<svg xmlns="http://www.w3.org/2000/svg" viewBox="0 0 64 64">
 <g>
  <path d="m 10.672 0 c -1.375 0 -2.672 1.355 -2.672 2.789 l 0 58.42 c 0 1.355 1.375 2.789 2.672 2.789 l 42.656 0 c 1.297 0 2.672 -1.434 2.672 -2.789 l 0 -43.21 l -18 -18 m -27.328 0" style="fill:#37a34d;fill-opacity:1;stroke:none;fill-rule:nonzero"/>
  <path d="m 42 18 l 14 14 l 0 -14 m -14 0" style="fill:#000;fill-opacity:0.196;stroke:none;fill-rule:nonzero"/>
  <path d="m 38 0 l 17.984 18 l -15.227 0 c -1.348 0 -2.758 -1.426 -2.758 -2.773 m 0 -15.227" style="fill:#fff;fill-opacity:0.392;stroke:none;fill-rule:nonzero"/>
  <path d="m 23.289 22 c -0.703 0.066 -1.305 0.813 -1.289 1.605 l 0 16.828 c 0.008 0.828 0.668 1.574 1.406 1.566 l 17.223 0 c 0.727 -0.016 1.363 -0.746 1.371 -1.566 l 0 -16.828 c 0.016 -0.836 -0.629 -1.598 -1.371 -1.605 m -16.629 2 16 0 0 11.402 -4.703 -5.316 -2.98 2.773 -3.93 -4.922 -4.387 5.66" style="fill:#fff;fill-opacity:1;stroke:none;fill-rule:nonzero"/>
  <path d="m 8 48 l 0 13.336 c 0 1.297 1.375 2.664 2.664 2.664 l 42.672 0 c 1.289 0 2.664 -1.367 2.664 -2.664 l 0 -13.336 m -48 0" style="fill:#000;fill-opacity:0.196;stroke:none;fill-rule:nonzero"/>
  <path d="m 18 61.984 l 0 -1.801 l 2.711 0 l 0 -7.316 l -2.711 0 l 0 -1.801 l 7.891 0 l 0 1.801 l -2.695 0 l 0 7.316 l 2.695 0 l 0 1.801 l -7.891 0" style="fill:#fff;fill-opacity:1;stroke:none;fill-rule:nonzero"/>
  <path d="m 32.891 62.21 c -1.75 0 -3.086 -0.492 -4.01 -1.484 c -0.926 -0.984 -1.387 -2.387 -1.387 -4.215 c 0 -0.898 0.145 -1.707 0.426 -2.41 c 0.277 -0.707 0.668 -1.301 1.16 -1.785 c 0.508 -0.492 1.102 -0.859 1.785 -1.109 c 0.699 -0.258 1.453 -0.383 2.27 -0.383 c 0.441 0 0.832 0.035 1.184 0.102 c 0.359 0.059 0.676 0.133 0.941 0.215 c 0.27 0.082 0.492 0.168 0.66 0.258 c 0.191 0.102 0.336 0.168 0.426 0.219 l -0.641 1.727 c -0.309 -0.176 -0.684 -0.324 -1.129 -0.441 c -0.426 -0.125 -0.918 -0.191 -1.484 -0.191 c -0.383 0 -0.766 0.066 -1.141 0.191 c -0.359 0.117 -0.684 0.324 -0.984 0.617 c -0.277 0.281 -0.512 0.668 -0.703 1.141 c -0.176 0.484 -0.258 1.086 -0.258 1.805 c 0 1.242 0.242 2.199 0.719 2.875 c 0.5 0.652 1.301 0.984 2.41 0.984 c 0.641 0 1.168 -0.066 1.586 -0.191 c 0.426 -0.133 0.766 -0.258 1.023 -0.391 l 0.617 1.711 c -0.34 0.191 -0.816 0.367 -1.418 0.531 c -0.59 0.152 -1.273 0.227 -2.051 0.227" style="fill:#fff;fill-opacity:1;stroke:none;fill-rule:nonzero"/>
  <path d="m 40.04 56.51 c 0 0.535 0.016 1.035 0.059 1.504 c 0.051 0.457 0.141 0.859 0.277 1.199 c 0.148 0.344 0.348 0.609 0.605 0.809 c 0.254 0.203 0.594 0.301 1.02 0.301 c 0.418 0 0.75 -0.098 1.01 -0.301 c 0.27 -0.199 0.469 -0.465 0.602 -0.809 c 0.141 -0.355 0.242 -0.758 0.277 -1.215 c 0.059 -0.461 0.082 -0.953 0.082 -1.488 c 0 -0.523 -0.023 -1.016 -0.082 -1.477 c -0.035 -0.473 -0.137 -0.875 -0.277 -1.215 c -0.133 -0.344 -0.332 -0.609 -0.582 -0.813 c -0.262 -0.199 -0.594 -0.297 -1.027 -0.297 c -0.426 0 -0.766 0.098 -1.02 0.297 c -0.258 0.203 -0.457 0.477 -0.605 0.828 c -0.137 0.34 -0.227 0.742 -0.277 1.199 c -0.043 0.461 -0.059 0.953 -0.059 1.477 m -2.512 0 c 0 -1.875 0.395 -3.293 1.188 -4.246 c 0.781 -0.965 1.883 -1.441 3.285 -1.441 c 1.461 0 2.57 0.477 3.336 1.441 c 0.762 0.953 1.145 2.371 1.145 4.246 c 0 1.887 -0.395 3.305 -1.168 4.273 c -0.777 0.949 -1.871 1.426 -3.289 1.426 c -1.457 0 -2.574 -0.477 -3.352 -1.426 c -0.758 -0.969 -1.145 -2.387 -1.145 -4.273" style="fill:#fff;fill-opacity:1;stroke:none;fill-rule:nonzero"/>
 </g>
</svg>
